Origami/64x64/apps/visual-studio-code-insiders.svg

<svg width="64" height="64" version="1" xmlns="http://www.w3.org/2000/svg">
 <path d="m41.84375 4.9987071a8.0008 8.0008 0 0 0 -5.5 2.34375l-10.882812 10.878905-4.550782-3.539062a8.0008 8.0008 0 0 0 -8.488281 -0.839844l-4.0000001 2a8.0008 8.0008 0 0 0 -4.421875 7.156251v20a8.0008 8.0008 0 0 0 4.421875 7.15625l4.0000001 2a8.0008 8.0008 0 0 0 8.488281 -0.839844l4.550782-3.539062 10.882812 10.878906a8.0008 8.0008 0 0 0 8.628906 1.773438l10-4a8.0008 8.0008 0 0 0 5.027344 -7.429688v-32.000001a8.0008 8.0008 0 0 0 -5.027344 -7.4296865l-10-4a8.0008 8.0008 0 0 0 -3.128906 -0.5703124z" style="opacity:.2"/>
 <path d="m41.84375 3.9999992a8.0008 8.0008 0 0 0 -5.5 2.34375l-10.882812 10.878906-4.550782-3.539062a8.0008 8.0008 0 0 0 -8.488281 -0.839844l-4.0000001 2a8.0008 8.0008 0 0 0 -4.421875 7.15625v20a8.0008 8.0008 0 0 0 4.421875 7.15625l4.0000001 2a8.0008 8.0008 0 0 0 8.488281 -0.839844l4.550782-3.539062 10.882812 10.878906a8.0008 8.0008 0 0 0 8.628906 1.773438l10-4a8.0008 8.0008 0 0 0 5.027344 -7.429688v-32a8.0008 8.0008 0 0 0 -5.027344 -7.4296874l-10-4a8.0008 8.0008 0 0 0 -3.128906 -0.5703124z" style="fill:#009d3d"/>
 <path d="m42 12.999999-15.876 15.876-10.124-7.876-4 2v20l4 2 10.124-7.876 15.876 15.876 10-4v-32zm0 11.7774v16.4454l-10.57-8.224 10.57-8.222zm-26 2.222 6 6-6 6z" style="fill-rule:evenodd;opacity:.2"/>
 <path d="m42 11.999999-15.875 15.875-10.125-7.875-4 2v20l4 2 10.125-7.875 15.875 15.875 10-4v-32zm0 11.777344v16.445312l-10.570312-8.222656zm-26 2.222656 6 6-6 6z" style="fill-rule:evenodd;fill:#ffffff"/>
 <path d="m41.84375 4a8.0008 8.0008 0 0 0 -5.5 2.34375l-10.882812 10.878906-4.550782-3.539062a8.0008 8.0008 0 0 0 -8.488281 -0.839844l-4 2a8.0008 8.0008 0 0 0 -4.421875 7.15625v0.941406a8.0008 8.0008 0 0 1 4.421875 -7.099609l4-2a8.0008 8.0008 0 0 1 8.488281 0.839844l4.550782 3.539062 10.882812-10.878906a8.0008 8.0008 0 0 1 5.5 -2.34375 8.0008 8.0008 0 0 1 3.128906 0.5703125l10 4a8.0008 8.0008 0 0 1 5.027344 7.4296876v-0.998047a8.0008 8.0008 0 0 0 -5.027344 -7.4296875l-10-4a8.0008 8.0008 0 0 0 -3.128906 -0.5703125z" style="fill:#ffffff;opacity:.1"/>
</svg>

<svg xmlns="http://www.w3.org/2000/svg" width="64" height="64" version="1">
 <path style="opacity:0.2" d="m 41.84375,4.9987071 a 8.0008,8.0008 0 0 0 -5.5,2.34375 L 25.460938,18.221362 20.910156,14.6823 a 8.0008,8.0008 0 0 0 -8.488281,-0.839844 l -4.0000001,2 a 8.0008,8.0008 0 0 0 -4.421875,7.156251 v 20 a 8.0008,8.0008 0 0 0 4.421875,7.15625 l 4.0000001,2 a 8.0008,8.0008 0 0 0 8.488281,-0.839844 l 4.550782,-3.539062 10.882812,10.878906 a 8.0008,8.0008 0 0 0 8.628906,1.773438 l 10,-4 A 8.0008,8.0008 0 0 0 60,48.998707 V 16.998706 A 8.0008,8.0008 0 0 0 54.972656,9.5690195 l -10,-4 A 8.0008,8.0008 0 0 0 41.84375,4.9987071 Z"/>
 <path style="fill:#009d3d" d="m 41.84375,3.9999992 a 8.0008,8.0008 0 0 0 -5.5,2.34375 L 25.460938,17.222655 20.910156,13.683593 a 8.0008,8.0008 0 0 0 -8.488281,-0.839844 l -4.0000001,2 a 8.0008,8.0008 0 0 0 -4.421875,7.15625 v 20 a 8.0008,8.0008 0 0 0 4.421875,7.15625 l 4.0000001,2 a 8.0008,8.0008 0 0 0 8.488281,-0.839844 l 4.550782,-3.539062 10.882812,10.878906 a 8.0008,8.0008 0 0 0 8.628906,1.773438 l 10,-4 A 8.0008,8.0008 0 0 0 60,47.999999 v -32 A 8.0008,8.0008 0 0 0 54.972656,8.5703116 l -10,-4 A 8.0008,8.0008 0 0 0 41.84375,3.9999992 Z"/>
 <path style="opacity:0.2;fill-rule:evenodd" d="m 42,12.999999 -15.876,15.876 -10.124,-7.876 -4,2 v 20 l 4,2 10.124,-7.876 15.876,15.876 10,-4 v -32 z m 0,11.7774 v 16.4454 l -10.57,-8.224 10.57,-8.222 z m -26,2.222 6,6 -6,6 z"/>
 <path style="fill:#ffffff;fill-rule:evenodd" d="m 42,11.999999 -15.875,15.875 -10.125,-7.875 -4,2 v 20 l 4,2 10.125,-7.875 15.875,15.875 10,-4 v -32 z m 0,11.777344 V 40.222655 L 31.429688,31.999999 Z m -26,2.222656 6,6 -6,6 z"/>
 <path style="opacity:0.1;fill:#ffffff" d="M 41.84375 4 A 8.0008 8.0008 0 0 0 36.34375 6.34375 L 25.460938 17.222656 L 20.910156 13.683594 A 8.0008 8.0008 0 0 0 12.421875 12.84375 L 8.421875 14.84375 A 8.0008 8.0008 0 0 0 4 22 L 4 22.941406 A 8.0008 8.0008 0 0 1 8.421875 15.841797 L 12.421875 13.841797 A 8.0008 8.0008 0 0 1 20.910156 14.681641 L 25.460938 18.220703 L 36.34375 7.3417969 A 8.0008 8.0008 0 0 1 41.84375 4.9980469 A 8.0008 8.0008 0 0 1 44.972656 5.5683594 L 54.972656 9.5683594 A 8.0008 8.0008 0 0 1 60 16.998047 L 60 16 A 8.0008 8.0008 0 0 0 54.972656 8.5703125 L 44.972656 4.5703125 A 8.0008 8.0008 0 0 0 41.84375 4 z"/>
</svg>
